X:1
T:Our Savior Will Descend Again
T:Our Savior Will Descend Again
T:John J. Lowe
T:Thomas Laurie, 1891
T:Public Domain Courtesy of the Cyber Hymnal™
C:John J. Lowe
Z:Public Domain
Z:Courtesy of the Cyber Hymnal™
%%score ( 1 2 ) ( 3 4 )
L:1/8
M:6/8
K:D
V:1 treble 
V:2 treble 
V:3 bass 
V:4 bass 
V:1
 [FA] | [FA]2 [DF] [FA]2 [FA] | [GB]2 [DG] [GB]2 [GB] | [FA]2 [GB] [FA]2 [DF] | [DF]3 [CE]2 [GA] | %5
w: 1.~Our|Sav- ior will de-|scend a- gain, Earth’s|bur- ied mil- lions|rais- ing; With|
w: 2.~And|though these bo- dies|lie in dust Be-|fore that glad ap-|pear- ing, Yet|
w: 3.~What,|though earth’s gath- ering|tem- pests lower, And|ag- es pass in|sad- ness? Yet|
w: 4.~Then,|safe at last, this|bless- èd throng, Set|free from trib- u-|la- tion, Shall|
 [FA]2 [DF] [FA]2 [FA] | [GB]2 [DG] !fermata![Gd]2 [GB] | [FA]2 [GB] [FA]2 [DF] | %8
w: Him will come a|glo- rious train, A-|dor- ing Him and|
w: shall they stand a-|mong the just, Our|Sav- ior’s im- age|
w: we may see that|glo- rious hour, And|hail the dawn with|
w: ev- er praise in|ho- ly song, The|God of their sal-|
 [CE]3 !fermata!D2 ||"^Refrain" [FA] | [Fd]2 [Fd] [Fd]2 [Ac] | [GB]2 [GB] [Gd]2 [GB] | %12
w: prais- ing.||||
w: wear- ing.|Raise|high the song that|loud and long Be-|
w: glad- ness.||||
w: va- tion.||||
 [FA]2 [GB] [FA]2 [DF] | [DF]3 [CE]2 A | [Fd]2 [Fd] [Fd]2 [Ac] | [GB]2 [GB] !fermata![Gd]2 [GB] | %16
w: ||||
w: fore Him ceas- eth|nev- er, Till,|cast- ing down each|gold- en crown, We|
w: ||||
w: ||||
 [FA]2 [GB] [FA]2 [DF] | [CE]3 D2 |] %18
w: ||
w: wor- ship Him for-|ev- er.|
w: ||
w: ||
V:2
 x | x6 | x6 | x6 | x6 | x6 | x6 | x6 | x3 D2 || x | x6 | x6 | x6 | x5 A | x6 | x6 | x6 | x3 D2 |] %18
V:3
 [D,D] | [D,D]2 [D,A,] [D,D]2 [D,D] | [G,D]2 [G,B,] [G,D]2 [G,D] | [D,D]2 [D,D] [D,D]2 [D,A,] | %4
 [A,,A,]3 [A,,A,]2 [A,,C] | [D,D]2 [D,A,] [D,D]2 [D,D] | [G,D]2 [G,B,] !fermata![G,B,]2 [G,D] | %7
 [D,D]2 [D,D] [D,D]2 [D,A,] | [A,,G,]3 !fermata![D,F,]2 || [D,D] | [D,A,]2 [D,A,] [D,A,]2 [F,D] | %11
 [G,D]2 [G,D] [G,B,]2 [G,D] | [D,D]2 [D,D] [D,D]2 [D,A,] | [A,,A,]3 [A,,A,]2 A, | %14
 [D,A,]2 [D,A,] [D,A,]2 [F,D] | [G,D]2 [G,D] !fermata![G,B,]2 [G,D] | [D,D]2 [D,D] [D,D]2 [D,A,] | %17
 [A,,G,]3 [D,F,]2 |] %18
V:4
 x | x6 | x6 | x6 | x6 | x6 | x6 | x6 | x5 || x | x6 | x6 | x6 | x5 A, | x6 | x6 | x6 | x5 |] %18

